svgs/thin/chart-gantt.svg

<svg xmlns="http://www.w3.org/2000/svg" viewBox="0 0 512 512"><!-- Font Awesome Pro 6.0.0-alpha2 by @fontawesome - https://fontawesome.com License - https://fontawesome.com/license (Commercial License) --><path d="M144 176H272C280.828 176 288 168.828 288 160V128C288 119.141 280.828 112 272 112H144C135.172 112 128 119.141 128 128V160C128 168.828 135.172 176 144 176ZM144 128H272V160H144V128ZM336 368H464C472.828 368 480 360.828 480 352V320C480 311.141 472.828 304 464 304H336C327.172 304 320 311.141 320 320V352C320 360.828 327.172 368 336 368ZM336 320H464V352H336V320ZM504 464H72C41.125 464 16 438.875 16 408V40C16 35.578 12.422 32 8 32S0 35.578 0 40V408C0 447.688 32.312 480 72 480H504C508.422 480 512 476.422 512 472S508.422 464 504 464ZM208 272H368C376.828 272 384 264.828 384 256V224C384 215.141 376.828 208 368 208H208C199.172 208 192 215.141 192 224V256C192 264.828 199.172 272 208 272ZM208 224H368V256H208V224Z"/></svg>

<svg xmlns="http://www.w3.org/2000/svg" viewBox="0 0 512 512"><!--! Font Awesome Pro 6.0.0-alpha3 by @fontawesome - https://fontawesome.com License - https://fontawesome.com/license (Commercial License) --><path d="M144 176h128C280.8 176 288 168.8 288 160V128c0-8.859-7.172-16-16-16h-128C135.2 112 128 119.1 128 128v32C128 168.8 135.2 176 144 176zM144 128h128v32h-128V128zM336 368h128c8.828 0 16-7.172 16-16v-32c0-8.859-7.172-16-16-16h-128C327.2 304 320 311.1 320 320v32C320 360.8 327.2 368 336 368zM336 320h128v32h-128V320zM504 464H72c-30.88 0-56-25.12-56-56V40C16 35.58 12.42 32 8 32S0 35.58 0 40v368C0 447.7 32.31 480 72 480h432c4.422 0 8-3.578 8-8S508.4 464 504 464zM208 272h160C376.8 272 384 264.8 384 256V224c0-8.859-7.172-16-16-16h-160C199.2 208 192 215.1 192 224v32C192 264.8 199.2 272 208 272zM208 224h160v32h-160V224z"/></svg>
